X: 1708
T: the First of May   #3
R: hornpipe, reel
%S: s:3 b:12(4+4+4)
B: O'Neill's 1850 #1708
O: F.O'Neill
Z: "Transcribed by Bob Safranek, rjs@gsp.org"
M: 2/4
L: 1/16
N: Compacted by using labels and play order [JC]
P: Play ABAB CBCB
K: A	% DMoI has A dorian
"^A"[| (AG) | EAAB cBcA | dcde f2(ef) | gedc dfed | cAGF G2 |]
"^B"[|  G2  | EAAB cBcA | dcde f2(ef) | gedc dfec | A2AA A2 |]
"^C"[| (fg) | a2af g2ge | fgfd e2(ed) | cdef gfed | cAGF G2 |]
